X:1
T:The Road To Ballymac x2
L:1/8
Q:1/4=180
M:4/4
K:D
|:"G"G!mf! .G,2 z2 .D,2 z2 | .G,2 z2"C"C .C,2 z2 |"G"G .G,2 z2"C"C .C,2 z2 |"G"G .G,2 z2"D7"D7 .D,2 z2 |"G"G .G,2 z2 .D,2 z2 |"G"G .G,2 z2"C"C .C,2 z2 |"C/D"C/D D,D, z2 z2 D,D, |1"D"D z4 D,4 :|2"D"D z4"G"G D,4 |:"G"G .G,2 z2"Em"E .E,2 z2 |"C"C .C,2 z2"D7"D7 .D,2 z2 |"G"G .G,2 z2"Am"A .A,,2 z2 |"C"C .C,2 z2"D7"D7 D,2 z2 |"G"G .G,2 z2"Em"E .E,2 z2 |"C"C .C,2 z2"D7"D7 .D,2 z2 |"G"G .G,2 z2"C"C .C,2 z2 |1"D7"D7"G" .D,2 z2G .G,2 z2 :|2"D7"D7"G" .D,2 z2G G,4 |:"D"D D,2 z2 F,2 z2 |"A"A A,,2 z2 A,,2 z2 |"Bm"B B,,2 z2 B,,2 z2 |"F#m"F F,,2 z2 F,,2 z2 |"G"G G,,2 z2 G,,2 z2 |"D"D F,,2 z2 D,2 z2 |"G"G G,,2 z2 B,,2 z2 |1"A7"A7"A" A,,2 z2A C,4 :|2"A"A A,,4"D"D D,4 |:"D"D D,2 z2 D,2 z2 |"A"A A,,2 z2 A,,2 z2 |"Bm"B B,,2 z2 B,,2 z2 |"F#m"F F,,2 z2 F,,2 z2 |"G"G G,,2 z2 G,,2 z2 |"D"D D,,2 z2 D,,2 z2 |"G"G G,,2 z2 G,,2 z2 |1"A7"A7"A" A,,2 z2A C,4 :|2"A"A A,,4"D"D D,4 ||"A"A A,,4 z4 |"D"D !fermata!D,8 |
